X: 22
T: 1921
R: reel
M: 4/4
K: Dmajor
|:dcAG FGAc|dcAG FEDE|E=FFG A2AB|B=ccd e^cAc|
dcAG FGAc|dcAG FEDE|E=FFG AB=cA|1 GE=CE DAB=c:|2 GE=CE D2A2||
|:Addc defd|Addc defd|e=cAB Bccd|e=cAB cAGB|
Addc defd|Addc defg|a2af fgge|ae^ce d2d2:|

